cellphone-text.svg

<svg fill="currentColor" viewBox="0 0 24 24"><path d="M17 19V5H7v14zm0-18a2 2 0 0 1 2 2v18a2 2 0 0 1-2 2H7a2 2 0 0 1-2-2V3c0-1.11.89-2 2-2zM9 7h6v2H9zm0 4h4v2H9z"/></svg>

<svg  viewBox="0 0 24 24" fill="currentColor"><path  d="M17,19V5H7V19H17M17,1A2,2 0 0,1 19,3V21A2,2 0 0,1 17,23H7C5.89,23 5,22.1 5,21V3C5,1.89 5.89,1 7,1H17M9,7H15V9H9V7M9,11H13V13H9V11Z"/></svg>
